X: 38785
T: Stumpie
R: strathspey
M: 4/4
K: Amajor
|:Bdgb afgd|Bdgb aAAc|Bdgb afge|dBAc BGGc:|
|:BddB c2ec|BddB cAAc|BddB c2ec|BdAc BGGc:|

